packages/foundations/assets/icons/functional/images/technology/database_32.svg

<svg width="32" height="32" viewBox="0 0 32 32" fill="none" xmlns="http://www.w3.org/2000/svg">
<g clip-path="url(#clip0_187_576)">
<path fill-rule="evenodd" clip-rule="evenodd" d="M26.9993 3C28.597 3 29.9908 4.27683 29.9993 6V10C29.9993 10.7688 29.7102 11.47 29.2346 12.0009C29.6629 12.4778 29.9993 13.1591 29.9993 14V18C29.9993 18.7688 29.7102 19.47 29.2346 20.0009C29.6629 20.4778 30.0261 21.2167 29.9993 22V26C29.9993 27.5977 28.7135 29 26.9993 29H4.99933C3.40165 29 1.99933 27.7065 1.99933 26V22C1.99933 21.2317 2.28815 20.5308 2.76313 20.0001C2.33597 19.523 1.99933 18.8226 1.99933 18V14C1.99933 13.2317 2.28815 12.5308 2.76313 12.0001C2.33597 11.523 1.99933 10.8185 1.99933 10V6C1.99933 4.40232 3.27919 3 4.99933 3H26.9993ZM4.99933 21C4.48649 21 4.00606 21.403 3.99933 22V26C3.99933 26.5128 4.41123 27 4.99933 27H26.9993C27.5122 27 27.9993 26.5738 27.9993 26V22C27.9993 21.4872 27.5842 21 26.9993 21H4.99933ZM6.99933 23C7.55161 23 7.99933 23.4477 7.99933 24C7.99933 24.5523 7.55161 25 6.99933 25C6.44704 25 5.99933 24.5523 5.99933 24C5.99933 23.4477 6.44704 23 6.99933 23ZM24.9993 23C25.5516 23 25.9993 23.4477 25.9993 24C25.9993 24.5128 25.5504 25 24.9993 25H20.9993C20.447 25 19.9993 24.5523 19.9993 24C19.9993 23.4872 20.4232 23 20.9993 23H24.9993ZM4.99933 13C4.48649 13 4.00606 13.4042 4.00606 14L3.99933 18C3.99933 18.5128 4.43171 19 4.99933 19H26.9993C27.5122 19 27.9993 18.5705 27.9993 18V14C27.9993 13.4872 27.6058 13 26.9993 13H4.99933ZM6.99933 15C7.55161 15 7.99933 15.4477 7.99933 16C7.99933 16.5523 7.55161 17 6.99933 17C6.44704 17 5.99933 16.5523 5.99933 16C5.99933 15.4477 6.44704 15 6.99933 15ZM24.9993 15C25.5516 15 25.9993 15.4477 25.9993 16C25.9993 16.5128 25.5933 17 24.9993 17H20.9993C20.447 17 19.9993 16.5523 19.9993 16C19.9993 15.4872 20.4234 15 20.9993 15H24.9993ZM4.99933 5C4.48649 5 4.00606 5.42064 3.99933 6V10C3.99933 10.5128 4.43652 11 4.99933 11H26.9993C27.5122 11 27.9993 10.5648 27.9993 10.0259V6C27.9993 5.48716 27.5842 5 26.9993 5H4.99933ZM6.99933 7C7.55161 7 7.99933 7.44772 7.99933 8C7.99933 8.55228 7.55161 9 6.99933 9C6.44704 9 5.99933 8.55228 5.99933 8C5.99933 7.44772 6.44704 7 6.99933 7ZM24.9993 7C25.5516 7 25.9993 7.44772 25.9993 8C25.9993 8.51284 25.6133 8.93551 25.1159 8.99327L20.9993 9C20.447 9 19.9993 8.55228 19.9993 8C19.9993 7.48716 20.4142 7 20.9993 7H24.9993Z" fill="#1A1C1F"/>
</g>
<defs>
<clipPath id="clip0_187_576">
<rect width="32" height="32" fill="white"/>
</clipPath>
</defs>
</svg>

<svg xmlns="http://www.w3.org/2000/svg" width="32" height="32" fill="none"><g clip-path="url(#a)"><path fill="#1A1C1F" fill-rule="evenodd" d="M27 3a3 3 0 0 1 3 3v4c0 .769-.29 1.47-.765 2 .428.478.764 1.16.764 2v4c0 .769-.289 1.47-.764 2 .428.478.791 1.217.764 2v4c0 1.598-1.285 3-3 3H5c-1.597 0-3-1.294-3-3v-4c0-.768.29-1.47.764-2A3 3 0 0 1 2 18v-4c0-.768.29-1.47.764-2A3.02 3.02 0 0 1 2 10V6c0-1.598 1.28-3 3-3zM5 21a1 1 0 0 0-1 1v4c0 .513.411 1 1 1h22c.512 0 1-.426 1-1v-4c0-.513-.416-1-1-1zm2 2a1 1 0 1 1 0 2 1 1 0 0 1 0-2m18 0a1 1 0 0 1 1 1c0 .513-.45 1-1 1h-4a1 1 0 0 1-1-1c0-.513.423-1 1-1zM5 13a.99.99 0 0 0-.994 1L4 18c0 .513.433 1 1 1h22c.513 0 1-.43 1-1v-4a.99.99 0 0 0-1-1zm2 2a1 1 0 1 1 0 2 1 1 0 0 1 0-2m18 0a1 1 0 1 1 0 2h-4a1 1 0 0 1-1-1c0-.513.423-1 1-1zM5 5c-.514 0-.994.42-1 1v4c0 .513.437 1 1 1h22c.512 0 1-.435 1-.974V6c0-.513-.416-1-1-1zm2 2a1 1 0 1 1 0 2 1 1 0 0 1 0-2m18 0a1 1 0 0 1 .116 1.993L20.999 9a1 1 0 1 1 0-2z" clip-rule="evenodd"/></g><defs><clipPath id="a"><path fill="#fff" d="M0 0h32v32H0z"/></clipPath></defs></svg>
